; generated by PrusaSlicer 2.9.3 on 2025-12-10 at 02:40:05 UTC


;
;
; 

; external perimeters extrusion width = 0.45mm
; perimeters extrusion width = 0.45mm
; infill extrusion width = 0.45mm
; solid infill extrusion width = 0.45mm
; top infill extrusion width = 0.40mm
; support material extrusion width = 0.35mm
; first layer extrusion width = 0.42mm

M73 P0 R566
M73 Q0 S571
M201 X1000 Y1000 Z200 E5000 ; sets maximum accelerations, mm/sec^2
M203 X200 Y200 Z12 E120 ; sets maximum feedrates, mm / sec
M204 S1250 T1250 ; sets acceleration (S) and retract acceleration (R), mm/sec^2
M205 X8.00 Y8.00 Z0.40 E4.50 ; sets the jerk limits, mm/sec
M205 S0 T0 ; sets the minimum extruding and travel feed rate, mm/sec

; printing object Car3v3.stl id:0 copy 0
; stop printing object Car3v3.stl id:0 copy 0

;TYPE:Custom
M862.3 P "MK3S" ; printer model check
M862.1 P0.4 ; nozzle diameter check
M115 U3.14.1 ; tell printer latest fw version
G90 ; use absolute coordinates
M83 ; extruder relative mode
M104 S230 ; set extruder temp
M140 S50 ; set bed temp
M190 S50 ; wait for bed temp
M109 S230 ; wait for extruder temp
G28 W ; home all without mesh bed level
G80 X80.4591 Y3.67292 W89.0818 H202.654 ; mesh bed levelling

G1 Z0.2 F720
G1 Y-3 F1000 ; go outside print area
G92 E0
G1 X60 E9 F1000 ; intro line
G1 X100 E12.5 F1000 ; intro line
M73 P0 R565

G92 E0
M221 S95

; Don't change E values below. Excessive value can damage the printer.

M907 E538 ; set extruder motor current
G21 ; set units to millimeters
G90 ; use absolute coordinates
M83 ; use relative distances for extrusion
M900 K0 ; Filament gcode
M107
;LAYER_CHANGE
;Z:0.2
;HEIGHT:0.2
G1 E-2 F3000
G1 Z.2 F720
G1 X80.804 Y18.189 F10800
G1 Z.2 F720
G1 E2 F1500
M204 S800
;TYPE:Skirt/Brim
;WIDTH:0.42
G1 F1200
G1 X85.418 Y6.654 E.42849
G1 X86.245 Y5.64 E.04513
G1 X86.97 Y5.331 E.02718
G1 X93.27 Y3.915 E.22271
G1 X93.75 Y3.861 E.01666
G1 X156.95 Y3.861 E2.17975
G1 X158.198 Y4.252 E.04511
G1 X158.818 Y4.91 E.03118
G1 X166.725 Y17.861 E.52335
G1 X167.045 Y18.966 E.03968
G1 X169.352 Y159.698 E4.85446
G1 X169.352 Y174.849 E.52255
M73 Q0 S570
G1 X169.229 Y175.574 E.02536
G1 X159.015 Y204.675 E1.06371
G1 X158.233 Y205.723 E.0451
G1 X156.95 Y206.139 E.04652
G1 X93.75 Y206.139 E2.17975
G1 X92.502 Y205.748 E.04511
G1 X91.651 Y204.571 E.05009
G1 X83.045 Y175.469 E1.04669
G1 X82.955 Y174.883 E.02045
G1 X80.648 Y26.923 E5.10372
G1 X80.648 Y19.002 E.27319
G1 X80.793 Y18.248 E.02648
M204 S1000
G1 E-2 F3000
; printing object Car3v3.stl id:0 copy 0
G1 X93.208 Y169.598 F10800
G1 E2 F1500
M204 S800
;TYPE:Support material interface
;WIDTH:0.35
G1 F1200
G1 X93.326 Y169.598 E.00331
G1 X93.326 Y164.984 E.12959
G1 X93.054 Y164.984 E.00764
G1 X93.054 Y169.598 E.12959
G1 X92.547 Y169.598 E.01424
G1 X92.547 Y164.984 E.12959
G1 X92.04 Y164.984 E.01424
G1 X92.04 Y169.598 E.12959
G1 X91.533 Y169.598 E.01424
G1 X91.533 Y164.984 E.12959
G1 X91.026 Y164.984 E.01424
G1 X91.026 Y169.598 E.12959
G1 X90.519 Y169.598 E.01424
G1 X90.519 Y164.984 E.12959
G1 X90.012 Y164.984 E.01424
G1 X90.012 Y169.598 E.12959
G1 X89.504 Y169.598 E.01427
G1 X89.504 Y164.984 E.12959
G1 X88.997 Y164.984 E.01424
G1 X88.997 Y169.598 E.12959
G1 X88.49 Y169.598 E.01424
G1 X88.49 Y164.984 E.12959
G1 X88.087 Y164.984 E.01132
G1 X88.087 Y169.598 E.12959
G1 X88.337 Y169.598 E.00702
M204 S1000
G1 E-2 F3000
G1 X93.27 Y164.62 F10800
G1 E2 F1500
M204 S800
;TYPE:Support material
;WIDTH:0.42
G1 F1200
G1 X87.723 Y164.62 E.19131
G1 X87.723 Y169.962 E.18424
G1 X93.27 Y169.962 E.19131
G1 X93.27 Y174.849 E.16855
G1 X85.143 Y174.849 E.2803
G1 X85.143 Y159.734 E.52131
G1 X93.27 Y159.734 E.2803
G1 X93.27 Y164.564 E.16659
M204 S1000
G1 E-2 F3000
G1 X92.739 Y174.679 F10800
G1 E2 F1500
M204 S800
G1 F1200
G1 X92.739 Y170.301 E.151
G1 X92.32 Y170.301 E.01445
G1 X92.32 Y174.509 E.14513
G1 X91.901 Y174.509 E.01445
G1 X91.901 Y170.301 E.14513
G1 X91.482 Y170.301 E.01445
G1 X91.482 Y174.509 E.14513
G1 X91.063 Y174.509 E.01445
G1 X91.063 Y170.301 E.14513
G1 X90.644 Y170.301 E.01445
G1 X90.644 Y174.509 E.14513
G1 X90.225 Y174.509 E.01445
G1 X90.225 Y170.301 E.14513
G1 X89.806 Y170.301 E.01445
G1 X89.806 Y174.509 E.14513
G1 X89.387 Y174.509 E.01445
G1 X89.387 Y170.301 E.14513
G1 X88.968 Y170.301 E.01445
G1 X88.968 Y174.509 E.14513
G1 X88.549 Y174.509 E.01445
G1 X88.549 Y170.301 E.14513
G1 X88.13 Y170.301 E.01445
G1 X88.13 Y174.509 E.14513
G1 X87.711 Y174.509 E.01445
G1 X87.711 Y170.301 E.14513
G1 X87.384 Y170.301 E.01128
G1 X87.384 Y164.281 E.20763
G1 X87.711 Y164.281 E.01128
G1 X87.711 Y160.073 E.14513
G1 X88.13 Y160.073 E.01445
G1 X88.13 Y164.281 E.14513
G1 X88.549 Y164.281 E.01445
G1 X88.549 Y160.073 E.14513
G1 X88.968 Y160.073 E.01445
G1 X88.968 Y164.281 E.14513
G1 X89.387 Y164.281 E.01445
G1 X89.387 Y160.073 E.14513
G1 X89.806 Y160.073 E.01445
G1 X89.806 Y164.281 E.14513
G1 X90.225 Y164.281 E.01445
G1 X90.225 Y160.073 E.14513
G1 X90.644 Y160.073 E.01445
G1 X90.644 Y164.281 E.14513
G1 X91.063 Y164.281 E.01445
G1 X91.063 Y160.073 E.14513
G1 X91.482 Y160.073 E.01445
G1 X91.482 Y164.281 E.14513
G1 X91.901 Y164.281 E.01445
G1 X91.901 Y160.073 E.14513
G1 X92.32 Y160.073 E.01445
G1 X92.32 Y164.281 E.14513
G1 X92.739 Y164.281 E.01445
G1 X92.739 Y159.903 E.151
M204 S1000
G1 E-2 F3000
G1 X87.292 Y174.679 F10800
G1 E2 F1500
M204 S800
G1 F1200
G1 X87.292 Y160.073 E.50376
G1 X86.873 Y160.073 E.01445
G1 X86.873 Y174.509 E.49789
G1 X86.454 Y174.509 E.01445
G1 X86.454 Y160.073 E.49789
G1 X86.035 Y160.073 E.01445
G1 X86.035 Y174.509 E.49789
G1 X85.616 Y174.509 E.01445
G1 X85.616 Y159.903 E.50376
M204 S1000
G1 E-2 F3000
G1 X157.453 Y164.984 F10800
G1 E2 F1500
M204 S800
;TYPE:Support material interface
;WIDTH:0.35
G1 F1200
G1 X157.453 Y169.598 E.12959
G1 X157.96 Y169.598 E.01424
G1 X157.96 Y164.984 E.12959
G1 X158.467 Y164.984 E.01424
G1 X158.467 Y169.598 E.12959
G1 X158.974 Y169.598 E.01424
G1 X158.974 Y164.984 E.12959
G1 X159.481 Y164.984 E.01424
G1 X159.481 Y169.598 E.12959
G1 X159.988 Y169.598 E.01424
G1 X159.988 Y164.984 E.12959
G1 X160.496 Y164.984 E.01427
G1 X160.496 Y169.598 E.12959
G1 X161.003 Y169.598 E.01424
G1 X161.003 Y164.984 E.12959
G1 X161.51 Y164.984 E.01424
G1 X161.51 Y169.598 E.12959
G1 X162.017 Y169.598 E.01424
G1 X162.017 Y164.984 E.12959
G1 X162.524 Y164.984 E.01424
G1 X162.524 Y169.598 E.12959
G1 X163.031 Y169.598 E.01424
G1 X163.031 Y164.984 E.12959
G1 X163.538 Y164.984 E.01424
G1 X163.538 Y169.598 E.12959
G1 X164.045 Y169.598 E.01424
G1 X164.045 Y164.984 E.12959
G1 X164.22 Y164.984 E.00492
G1 X164.22 Y165.334 E.00983
M204 S1000
G1 E-2 F3000
G1 X167.164 Y174.849 F10800
G1 E2 F1500
M204 S800
;TYPE:Support material
;WIDTH:0.42
G1 F1200
G1 X157.43 Y174.849 E.33572
G1 X157.43 Y169.962 E.16855
G1 X164.584 Y169.962 E.24674
G1 X164.584 Y164.62 E.18424
G1 X157.43 Y164.62 E.24674
G1 X157.43 Y159.734 E.16852
G1 X167.164 Y159.734 E.33572
G1 X167.164 Y174.792 E.51935
M204 S1000
G1 X166.479 Y174.679 F10800
M204 S800
G1 F1200
G1 X166.479 Y160.073 E.50376
G1 X166.06 Y160.073 E.01445
G1 X166.06 Y174.509 E.49789
G1 X165.641 Y174.509 E.01445
M73 P0 R564
G1 X165.641 Y160.073 E.49789
G1 X165.222 Y160.073 E.01445
G1 X165.222 Y174.509 E.49789
G1 X164.803 Y174.509 E.01445
G1 X164.803 Y160.073 E.49789
G1 X164.384 Y160.073 E.01445
G1 X164.384 Y164.281 E.14513
G1 X163.965 Y164.281 E.01445
G1 X163.965 Y160.073 E.14513
G1 X163.546 Y160.073 E.01445
G1 X163.546 Y164.281 E.14513
G1 X163.127 Y164.281 E.01445
G1 X163.127 Y160.073 E.14513
G1 X162.708 Y160.073 E.01445
G1 X162.708 Y164.281 E.14513
G1 X162.289 Y164.281 E.01445
G1 X162.289 Y160.073 E.14513
G1 X161.87 Y160.073 E.01445
G1 X161.87 Y164.281 E.14513
G1 X161.451 Y164.281 E.01445
G1 X161.451 Y160.073 E.14513
G1 X161.032 Y160.073 E.01445
G1 X161.032 Y164.281 E.14513
G1 X160.613 Y164.281 E.01445
G1 X160.613 Y160.073 E.14513
G1 X160.194 Y160.073 E.01445
G1 X160.194 Y164.281 E.14513
G1 X159.775 Y164.281 E.01445
G1 X159.775 Y160.073 E.14513
G1 X159.356 Y160.073 E.01445
G1 X159.356 Y164.281 E.14513
G1 X158.937 Y164.281 E.01445
G1 X158.937 Y160.073 E.14513
G1 X158.518 Y160.073 E.01445
G1 X158.518 Y164.281 E.14513
G1 X158.099 Y164.281 E.01445
G1 X158.099 Y159.903 E.151
M204 S1000
G1 E-2 F3000
G1 X164.384 Y174.679 F10800
G1 E2 F1500
M204 S800
G1 F1200
G1 X164.384 Y170.301 E.151
G1 X163.965 Y170.301 E.01445
G1 X163.965 Y174.509 E.14513
G1 X163.546 Y174.509 E.01445
G1 X163.546 Y170.301 E.14513
G1 X163.127 Y170.301 E.01445
G1 X163.127 Y174.509 E.14513
G1 X162.708 Y174.509 E.01445
G1 X162.708 Y170.301 E.14513
G1 X162.289 Y170.301 E.01445
G1 X162.289 Y174.509 E.14513
G1 X161.87 Y174.509 E.01445
G1 X161.87 Y170.301 E.14513
G1 X161.451 Y170.301 E.01445
G1 X161.451 Y174.509 E.14513
G1 X161.032 Y174.509 E.01445
G1 X161.032 Y170.301 E.14513
G1 X160.613 Y170.301 E.01445
G1 X160.613 Y174.509 E.14513
G1 X160.194 Y174.509 E.01445
G1 X160.194 Y170.301 E.14513
G1 X159.775 Y170.301 E.01445
G1 X159.775 Y174.509 E.14513
G1 X159.356 Y174.509 E.01445
G1 X159.356 Y170.301 E.14513
G1 X158.937 Y170.301 E.01445
G1 X158.937 Y174.509 E.14513
G1 X158.518 Y174.509 E.01445
G1 X158.518 Y170.301 E.14513
G1 X158.099 Y170.301 E.01445
G1 X158.099 Y174.679 E.151
M204 S1000
G1 E-2 F3000
G1 X157.453 Y28.693 F10800
G1 E2 F1500
M204 S800
;TYPE:Support material interface
;WIDTH:0.35
G1 F1200
G1 X157.453 Y31.174 E.06968
G1 X157.96 Y31.174 E.01424
G1 X157.96 Y28.693 E.06968
G1 X158.467 Y28.693 E.01424
G1 X158.467 Y31.174 E.06968
G1 X158.974 Y31.174 E.01424
G1 X158.974 Y28.693 E.06968
G1 X159.481 Y28.693 E.01424
G1 X159.481 Y31.174 E.06968
G1 X159.988 Y31.174 E.01424
G1 X159.988 Y28.693 E.06968
M73 Q0 S569
G1 X160.496 Y28.693 E.01427
G1 X160.496 Y31.174 E.06968
G1 X161.003 Y31.174 E.01424
G1 X161.003 Y28.693 E.06968
G1 X161.391 Y28.693 E.0109
M204 S1000
G1 E-2 F3000
G1 X161.31 Y25.206 F10800
G1 E2 F1500
M204 S800
;TYPE:Support material
;WIDTH:0.42
G1 F1200
G1 X161.31 Y25.416 E.00724
G1 X157.43 Y25.416 E.13382
G1 X157.43 Y25.171 E.00845
G1 X161.268 Y25.171 E.13237
M204 S1000
G1 X161.618 Y25 F10800
M204 S800
;TYPE:Support material interface
;WIDTH:0.35
G1 F1200
G1 X161.674 Y25.055 E.0022
G1 X161.674 Y28.445 E.09522
G1 X161.51 Y28.608 E.00649
G1 X161.51 Y31.174 E.07207
G1 X161.913 Y31.174 E.01132
G1 X161.913 Y24.252 E.19442
G1 X161.51 Y24.252 E.01132
G1 X161.51 Y24.892 E.01798
G1 X161.425 Y24.807 E.00338
G1 X161.003 Y24.807 E.01185
G1 X161.003 Y24.252 E.01559
G1 X160.496 Y24.252 E.01424
G1 X160.496 Y24.807 E.01559
G1 X159.988 Y24.807 E.01427
G1 X159.988 Y24.252 E.01559
G1 X159.481 Y24.252 E.01424
G1 X159.481 Y24.807 E.01559
G1 X158.974 Y24.807 E.01424
G1 X158.974 Y24.252 E.01559
G1 X158.467 Y24.252 E.01424
G1 X158.467 Y24.807 E.01559
G1 X157.96 Y24.807 E.01424
G1 X157.96 Y24.252 E.01559
G1 X157.453 Y24.252 E.01424
G1 X157.453 Y24.807 E.01559
M204 S1000
G1 E-2 F3000
G1 X164.857 Y26.889 F10800
G1 E2 F1500
M204 S800
;TYPE:Support material
;WIDTH:0.42
G1 F1200
G1 X162.277 Y26.889 E.08898
G1 X162.277 Y23.889 E.10347
G1 X157.43 Y23.889 E.16717
G1 X157.43 Y19.002 E.16855
G1 X164.857 Y19.002 E.25616
G1 X164.857 Y26.832 E.27005
M204 S1000
G1 X164.384 Y26.719 F10800
M204 S800
G1 F1200
G1 X164.384 Y19.341 E.25447
G1 X163.965 Y19.341 E.01445
G1 X163.965 Y26.549 E.2486
G1 X163.546 Y26.549 E.01445
G1 X163.546 Y19.341 E.2486
G1 X163.127 Y19.341 E.01445
G1 X163.127 Y26.549 E.2486
G1 X162.708 Y26.549 E.01445
G1 X162.708 Y19.341 E.2486
G1 X162.289 Y19.341 E.01445
G1 X162.289 Y23.549 E.14513
G1 X161.87 Y23.549 E.01445
G1 X161.87 Y19.341 E.14513
G1 X161.451 Y19.341 E.01445
G1 X161.451 Y23.549 E.14513
G1 X161.032 Y23.549 E.01445
G1 X161.032 Y19.341 E.14513
G1 X160.613 Y19.341 E.01445
G1 X160.613 Y23.549 E.14513
G1 X160.194 Y23.549 E.01445
G1 X160.194 Y19.341 E.14513
G1 X159.775 Y19.341 E.01445
G1 X159.775 Y23.549 E.14513
G1 X159.356 Y23.549 E.01445
G1 X159.356 Y19.341 E.14513
G1 X158.937 Y19.341 E.01445
G1 X158.937 Y23.549 E.14513
G1 X158.518 Y23.549 E.01445
G1 X158.518 Y19.341 E.14513
G1 X158.099 Y19.341 E.01445
G1 X158.099 Y23.719 E.151
M204 S1000
G1 E-2 F3000
G1 X93.27 Y25.416 F10800
G1 E2 F1500
M204 S800
G1 F1200
G1 X87.09 Y25.416 E.21315
G1 X87.09 Y25.206 E.00724
G1 X93.27 Y25.171 E.21315
G1 X93.27 Y25.359 E.00648
M204 S1000
G1 X93.208 Y24.807 F10800
M204 S800
;TYPE:Support material interface
;WIDTH:0.35
G1 F1200
G1 X93.326 Y24.807 E.00331
G1 X93.326 Y24.252 E.01559
G1 X93.054 Y24.252 E.00764
G1 X93.054 Y24.807 E.01559
G1 X92.547 Y24.807 E.01424
G1 X92.547 Y24.252 E.01559
G1 X92.04 Y24.252 E.01424
G1 X92.04 Y24.807 E.01559
G1 X91.533 Y24.807 E.01424
G1 X91.533 Y24.252 E.01559
G1 X91.026 Y24.252 E.01424
G1 X91.026 Y24.807 E.01559
G1 X90.519 Y24.807 E.01424
G1 X90.519 Y24.252 E.01559
G1 X90.012 Y24.252 E.01424
G1 X90.012 Y24.807 E.01559
G1 X89.504 Y24.807 E.01427
G1 X89.504 Y24.252 E.01559
G1 X88.997 Y24.252 E.01424
G1 X88.997 Y24.807 E.01559
G1 X88.49 Y24.807 E.01424
G1 X88.49 Y24.252 E.01559
G1 X87.983 Y24.252 E.01424
G1 X87.983 Y24.807 E.01559
G1 X87.476 Y24.807 E.01424
G1 X87.476 Y24.252 E.01559
G1 X86.969 Y24.252 E.01424
G1 X86.969 Y24.813 E.01576
G1 X86.726 Y25.055 E.00963
G1 X86.726 Y28.445 E.09522
G1 X86.969 Y28.687 E.00963
G1 X86.969 Y31.174 E.06985
G1 X86.462 Y31.174 E.01424
G1 X86.462 Y24.252 E.19442
G1 X85.955 Y24.252 E.01424
G1 X85.955 Y31.174 E.19442
G1 X85.78 Y31.174 E.00492
G1 X85.78 Y30.824 E.00983
M204 S1000
G1 X87.12 Y28.693 F10800
M204 S800
G1 F1200
G1 X87.476 Y28.693 E.01
G1 X87.476 Y31.174 E.06968
G1 X87.983 Y31.174 E.01424
G1 X87.983 Y28.693 E.06968
G1 X88.49 Y28.693 E.01424
G1 X88.49 Y31.174 E.06968
G1 X88.997 Y31.174 E.01424
G1 X88.997 Y28.693 E.06968
G1 X89.504 Y28.693 E.01424
G1 X89.504 Y31.174 E.06968
G1 X90.012 Y31.174 E.01427
G1 X90.012 Y28.693 E.06968
G1 X90.519 Y28.693 E.01424
G1 X90.519 Y31.174 E.06968
G1 X91.026 Y31.174 E.01424
G1 X91.026 Y28.693 E.06968
G1 X91.533 Y28.693 E.01424
G1 X91.533 Y31.174 E.06968
G1 X92.04 Y31.174 E.01424
G1 X92.04 Y28.693 E.06968
G1 X92.547 Y28.693 E.01424
G1 X92.547 Y31.174 E.06968
G1 X93.054 Y31.174 E.01424
G1 X93.054 Y28.693 E.06968
G1 X93.326 Y28.693 E.00764
G1 X93.326 Y31.174 E.06968
G1 X93.208 Y31.174 E.00331
M204 S1000
G1 X90.24 Y31.537 F10800
M204 S800
;TYPE:Support material
;WIDTH:0.42
G1 F1200
G1 X93.27 Y31.537 E.1045
G1 X93.27 Y43.345 E.40725
G1 X87.45 Y43.345 E.20073
G1 X87.45 Y31.537 E.40725
G1 X90.184 Y31.537 E.09429
M204 S1000
G1 X92.739 Y43.176 F10800
M204 S800
G1 F1200
G1 X92.739 Y31.876 E.38973
G1 X92.32 Y31.876 E.01445
G1 X92.32 Y43.006 E.38387
G1 X91.901 Y43.006 E.01445
G1 X91.901 Y31.876 E.38387
G1 X91.482 Y31.876 E.01445
G1 X91.482 Y43.006 E.38387
G1 X91.063 Y43.006 E.01445
G1 X91.063 Y31.876 E.38387
G1 X90.644 Y31.876 E.01445
G1 X90.644 Y43.006 E.38387
G1 X90.225 Y43.006 E.01445
G1 X90.225 Y31.876 E.38387
G1 X89.806 Y31.876 E.01445
G1 X89.806 Y43.006 E.38387
G1 X89.387 Y43.006 E.01445
G1 X89.387 Y31.876 E.38387
G1 X88.968 Y31.876 E.01445
G1 X88.968 Y43.006 E.38387
G1 X88.549 Y43.006 E.01445
G1 X88.549 Y31.876 E.38387
G1 X88.13 Y31.876 E.01445
G1 X88.13 Y43.176 E.38973
M204 S1000
G1 E-2 F3000
G1 X93.27 Y7.575 F10800
G1 E2 F1500
M204 S800
G1 F1200
G1 X93.27 Y23.889 E.56267
G1 X85.416 Y23.889 E.27088
G1 X85.416 Y26.889 E.10347
G1 X82.836 Y26.889 E.08898
G1 X82.836 Y19.002 E.27202
G1 X87.45 Y19.002 E.15914
G1 X87.45 Y7.466 E.39787
G1 X93.27 Y7.466 E.20073
G1 X93.27 Y7.518 E.00179
M204 S1000
G1 X92.739 Y23.719 F10800
M204 S800
G1 F1200
G1 X92.739 Y7.806 E.54884
G1 X92.32 Y7.806 E.01445
G1 X92.32 Y23.549 E.54297
G1 X91.901 Y23.549 E.01445
G1 X91.901 Y7.806 E.54297
G1 X91.482 Y7.806 E.01445
G1 X91.482 Y23.549 E.54297
G1 X91.063 Y23.549 E.01445
G1 X91.063 Y7.806 E.54297
G1 X90.644 Y7.806 E.01445
G1 X90.644 Y23.549 E.54297
G1 X90.225 Y23.549 E.01445
G1 X90.225 Y7.806 E.54297
G1 X89.806 Y7.806 E.01445
G1 X89.806 Y23.549 E.54297
G1 X89.387 Y23.549 E.01445
G1 X89.387 Y7.806 E.54297
G1 X88.968 Y7.806 E.01445
G1 X88.968 Y23.549 E.54297
G1 X88.549 Y23.549 E.01445
G1 X88.549 Y7.806 E.54297
G1 X88.13 Y7.806 E.01445
G1 X88.13 Y23.549 E.54297
G1 X87.711 Y23.549 E.01445
G1 X87.711 Y19.341 E.14513
G1 X87.292 Y19.341 E.01445
G1 X87.292 Y23.549 E.14513
G1 X86.873 Y23.549 E.01445
G1 X86.873 Y19.341 E.14513
G1 X86.454 Y19.341 E.01445
